docs/img/icon1/footer-logo.svg

<svg xmlns="http://www.w3.org/2000/svg" width="183" height="162" viewBox="0 0 183 162" fill="none">
  <path d="M182.842 27.0048H156.857V162H129.852V27.0048H61.5471L43.8087 97.8708H75.6815V54.0096H102.658V162H75.6815V125.191H36.9882L27.5188 162H0L40.9639 0C88.3512 0 135.455 0 182.842 0V27.0048Z" fill="#F5F6FF"/>
  <path d="M75.8066 0H102.783V27.0048H75.8066V0Z" fill="#FF4545"/>
</svg>

<svg xmlns="http://www.w3.org/2000/svg" width="183" height="162" fill="none"><path d="M182.842 27.005h-25.985V162h-27.005V27.005H61.547L43.81 97.87h31.873V54.01h26.976V162H75.681v-36.809H36.989L27.518 162H0L40.964 0h141.878v27.005z" fill="#F5F6FF"/><path d="M75.807 0h26.976v27.005H75.807V0z" fill="#FF4545"/></svg>
